images/qualities/diagram.svg

<svg width="70" height="70" viewBox="0 0 70 70" fill="none" xmlns="http://www.w3.org/2000/svg">
<g clip-path="url(#clip0)">
<path d="M32.6496 32.7351H34.9817V43.2296H32.6496V32.7351Z" fill="#2196F3"/>
<path d="M41.978 37.3993H44.3102V43.2296H41.978V37.3993Z" fill="#2196F3"/>
<path d="M23.3211 40.8975H25.6532V43.2296H23.3211V40.8975Z" fill="#2196F3"/>
<path d="M16.3248 39.7314H18.6569V43.2295H16.3248V39.7314Z" fill="#2196F3"/>
<path d="M3.49817 59.6874H59.4689C61.4007 59.6874 62.967 58.121 62.967 56.1892V51.525C62.967 49.5931 61.4007 48.0268 59.4689 48.0268H58.3028V18.9477L64.9262 12.6733C66.4635 13.4311 68.3242 12.9711 69.3302 11.5824C70.3369 10.1943 70.1957 8.28295 68.9966 7.05768C67.7975 5.83241 65.8901 5.64964 64.4798 6.62496C63.0701 7.60085 62.569 9.45071 63.2933 11.0045L58.3028 15.7353V13.0451C58.3028 11.1133 56.7365 9.54694 54.8046 9.54694H8.16239C6.23054 9.54694 4.66422 11.1133 4.66422 13.0451V48.0268H3.49817C1.56632 48.0268 0 49.5931 0 51.525V56.1892C0 58.121 1.56632 59.6874 3.49817 59.6874ZM66.4652 8.38088C67.1091 8.38088 67.6312 8.90299 67.6312 9.54694C67.6312 10.1909 67.1091 10.713 66.4652 10.713C65.8212 10.713 65.2991 10.1909 65.2991 9.54694C65.2991 8.90299 65.8212 8.38088 66.4652 8.38088ZM6.99634 13.0451C6.99634 12.4012 7.51844 11.879 8.16239 11.879H54.8046C55.4486 11.879 55.9707 12.4012 55.9707 13.0451V17.9422L53.6386 20.1582V15.3772C53.6386 14.7333 53.1165 14.2112 52.4725 14.2112H10.4945C9.85055 14.2112 9.32845 14.7333 9.32845 15.3772V44.5286C9.32845 45.1726 9.85055 45.6947 10.4945 45.6947H52.4725C53.1165 45.6947 53.6386 45.1726 53.6386 44.5286V23.366L55.9707 21.1563V48.0268H6.99634V13.0451ZM17.4908 28.2038C15.9131 28.1993 14.5279 29.2503 14.1083 30.7711C13.6886 32.2919 14.3383 33.9049 15.6951 34.71C17.0513 35.515 18.7793 35.3129 19.9129 34.2157L23.9662 36.2495C24.4371 36.4852 25.0081 36.3748 25.3583 35.9813L33.9745 26.2879L42.4443 32.6346C42.8987 32.9751 43.5329 32.9387 43.9452 32.5486L51.3065 25.5757V43.3626H11.6606V16.5433H51.3065V22.3627L43.0564 30.1755L34.5154 23.7725C34.0303 23.4092 33.3476 23.4776 32.9445 23.9302L24.2099 33.758L20.9446 32.125C20.9685 31.985 20.9833 31.8438 20.989 31.702C20.989 29.7702 19.4227 28.2038 17.4908 28.2038ZM18.6569 31.702C18.6569 32.346 18.1348 32.8681 17.4908 32.8681C16.8469 32.8681 16.3248 32.346 16.3248 31.702C16.3248 31.0581 16.8469 30.5359 17.4908 30.5359C18.1348 30.5359 18.6569 31.0581 18.6569 31.702ZM25.6532 50.3589H37.3138V51.525C37.3138 52.1689 36.7917 52.691 36.1477 52.691H26.8193C26.1753 52.691 25.6532 52.1689 25.6532 51.525V50.3589ZM2.33211 51.525C2.33211 50.881 2.85422 50.3589 3.49817 50.3589H23.3211V51.525C23.3211 53.4568 24.8874 55.0231 26.8193 55.0231H36.1477C38.0796 55.0231 39.6459 53.4568 39.6459 51.525V50.3589H59.4689C60.1128 50.3589 60.6349 50.881 60.6349 51.525V56.1892C60.6349 56.8331 60.1128 57.3552 59.4689 57.3552H3.49817C2.85422 57.3552 2.33211 56.8331 2.33211 56.1892V51.525Z" fill="#212121"/>
</g>
<defs>
<clipPath id="clip0">
<rect width="70" height="70" fill="white"/>
</clipPath>
</defs>
</svg>

<svg width="70" height="70" fill="none" xmlns="http://www.w3.org/2000/svg"><g clip-path="url(#clip0)"><path d="M32.65 32.735h2.332V43.23H32.65V32.735zM41.978 37.4h2.332v5.83h-2.332V37.4zM23.321 40.898h2.332v2.332h-2.332v-2.332zM16.325 39.731h2.332v3.498h-2.332v-3.498z" fill="#2196F3"/><path d="M3.498 59.687h55.97a3.498 3.498 0 003.499-3.498v-4.664a3.498 3.498 0 00-3.498-3.498h-1.166v-29.08l6.623-6.274a3.518 3.518 0 10-1.633-1.668l-4.99 4.73v-2.69a3.498 3.498 0 00-3.498-3.498H8.162a3.498 3.498 0 00-3.498 3.498v34.982H3.498A3.498 3.498 0 000 51.525v4.664a3.498 3.498 0 003.498 3.498zM66.465 8.381a1.166 1.166 0 110 2.332 1.166 1.166 0 010-2.332zM6.996 13.045c0-.644.522-1.166 1.166-1.166h46.643c.644 0 1.166.522 1.166 1.166v4.897l-2.332 2.216v-4.78c0-.645-.523-1.167-1.167-1.167H10.495c-.644 0-1.167.522-1.167 1.166V44.53c0 .644.523 1.166 1.167 1.166h41.977c.645 0 1.167-.522 1.167-1.166V23.366l2.332-2.21v26.87H6.996v-34.98zm10.495 15.159a3.498 3.498 0 102.422 6.012l4.053 2.033c.471.236 1.042.126 1.392-.268l8.616-9.693 8.47 6.347c.455.34 1.089.304 1.501-.086l7.361-6.973v17.787H11.661v-26.82h39.645v5.82l-8.25 7.813-8.54-6.403a1.167 1.167 0 00-1.572.157l-8.734 9.828-3.265-1.633a3.3 3.3 0 00.044-.423 3.498 3.498 0 00-3.498-3.498zm1.166 3.498a1.166 1.166 0 11-2.332 0 1.166 1.166 0 012.332 0zm6.996 18.657h11.66v1.166c0 .644-.521 1.166-1.165 1.166h-9.329a1.166 1.166 0 01-1.166-1.166v-1.166zm-23.32 1.166c0-.644.521-1.166 1.165-1.166h19.823v1.166a3.498 3.498 0 003.498 3.498h9.329a3.498 3.498 0 003.498-3.498v-1.166h19.823c.644 0 1.166.522 1.166 1.166v4.664c0 .644-.522 1.166-1.166 1.166H3.499a1.166 1.166 0 01-1.167-1.166v-4.664z" fill="#212121"/></g><defs><clipPath id="clip0"><path fill="#fff" d="M0 0h70v70H0z"/></clipPath></defs></svg>
